app/images/vk.svg

<?xml version="1.0" encoding="UTF-8" standalone="no"?>
<svg width="36px" height="36px" viewBox="0 0 36 36" version="1.1" xmlns="http://www.w3.org/2000/svg" xmlns:xlink="http://www.w3.org/1999/xlink" xmlns:sketch="http://www.bohemiancoding.com/sketch/ns">
    <!-- Generator: Sketch 3.2.2 (9983) - http://www.bohemiancoding.com/sketch -->
    <title>Shape</title>
    <desc>Created with Sketch.</desc>
    <defs></defs>
    <g id="III-Игры-Дизайнеров" stroke="none" stroke-width="1" fill="none" fill-rule="evenodd" sketch:type="MSPage">
        <g id="Guidline" sketch:type="MSArtboardGroup" transform="translate(-77.000000, -1400.000000)" fill="#3D648D">
            <g id="Buttons" sketch:type="MSLayerGroup" transform="translate(75.000000, 1070.000000)">
                <g id="Обычное-состояние-" transform="translate(2.000000, 76.000000)" sketch:type="MSShapeGroup">
                    <g id="vk-with-circle" transform="translate(0.000000, 254.000000)">
                        <path d="M18.3,0.8 C8.63489583,0.8 0.8,8.63489583 0.8,18.3 C0.8,27.9651042 8.63489583,35.8 18.3,35.8 C27.9651042,35.8 35.8,27.9651042 35.8,18.3 C35.8,8.63489583 27.9651042,0.8 18.3,0.8 L18.3,0.8 Z M25.0302083,20.5440104 C25.0302083,20.5440104 26.5778646,22.0716146 26.9588542,22.7807292 C26.9697917,22.7953125 26.9752604,22.8098958 26.9789063,22.8171875 C27.1338542,23.0778646 27.1703125,23.2802083 27.09375,23.4315104 C26.9661458,23.6830729 26.5286458,23.8070313 26.3791667,23.8179688 L23.6447917,23.8179688 C23.4552083,23.8179688 23.0578125,23.76875 22.5765625,23.4369792 C22.2065104,23.178125 21.8419271,22.7533854 21.4864583,22.3395833 C20.9559896,21.7234375 20.4966146,21.1911458 20.0335938,21.1911458 C19.9752604,21.1911458 19.9151042,21.2002604 19.8604167,21.2184896 C19.5104167,21.3315104 19.0619792,21.8309896 19.0619792,23.1617188 C19.0619792,23.5773438 18.7338542,23.8161458 18.5023438,23.8161458 L17.25,23.8161458 C16.8234375,23.8161458 14.6013021,23.6666667 12.6325521,21.5903646 C10.2226563,19.0473958 8.05338542,13.946875 8.03515625,13.8994792 C7.8984375,13.5695313 8.18098958,13.3927083 8.4890625,13.3927083 L11.2507813,13.3927083 C11.6190104,13.3927083 11.7393229,13.6169271 11.8231771,13.815625 C11.9216146,14.0471354 12.2825521,14.9677083 12.875,16.003125 C13.8356771,17.6911458 14.4244792,18.3765625 14.8966146,18.3765625 C14.9859375,18.3765625 15.0679688,18.3528646 15.15,18.3109375 C15.7661458,17.9682292 15.6513021,15.7716146 15.6239583,15.3158854 C15.6239583,15.2302083 15.6221354,14.3333333 15.3067708,13.903125 C15.0807292,13.5914063 14.6960938,13.4729167 14.4627604,13.4291667 C14.5229167,13.3398438 14.6578125,13.203125 14.8255208,13.1210938 C15.2484375,12.9096354 16.0104167,12.8786458 16.7669271,12.8786458 L17.1880208,12.8786458 C18.0083333,12.8895833 18.2197917,12.9424479 18.5169271,13.0171875 C19.1184896,13.1611979 19.13125,13.5494792 19.0783854,14.8783854 C19.0619792,15.2557292 19.0455729,15.6822917 19.0455729,16.1854167 C19.0455729,16.2947917 19.0401042,16.4114583 19.0401042,16.5354167 C19.021875,17.2117188 19,17.9791667 19.4776042,18.2945313 C19.5395833,18.3328125 19.6106771,18.3546875 19.6854167,18.3546875 C19.8513021,18.3546875 20.3507813,18.3546875 21.7033854,16.0341146 C22.2958333,15.0096354 22.7552083,13.8010417 22.7880208,13.7117188 C22.8153646,13.6643229 22.8955729,13.5184896 22.9903646,13.4619792 C23.0651042,13.4182292 23.1653646,13.4091146 23.2164063,13.4091146 L26.4630208,13.4091146 C26.8166667,13.4091146 27.0591146,13.4619792 27.1046875,13.5986979 C27.1848958,13.815625 27.0901042,14.4773438 25.6080729,16.484375 C25.3583333,16.8161458 25.1377604,17.1059896 24.9463542,17.3575521 C23.6028646,19.1184896 23.6028646,19.2078125 25.0302083,20.5440104 L25.0302083,20.5440104 Z" id="Shape"></path>
                    </g>
                </g>
            </g>
        </g>
    </g>
</svg>

<svg width="36" height="36" viewBox="0 0 36 36" xmlns="http://www.w3.org/2000/svg" xmlns:sketch="http://www.bohemiancoding.com/sketch/ns"><title>Shape</title><desc>Created with Sketch.</desc><path d="M18.3.8c-9.665 0-17.5 7.835-17.5 17.5s7.835 17.5 17.5 17.5 17.5-7.835 17.5-17.5-7.835-17.5-17.5-17.5zm6.73 19.744s1.548 1.528 1.929 2.237l.02.036c.155.261.191.463.115.614-.128.252-.565.376-.715.386h-2.734c-.19 0-.587-.049-1.068-.381-.37-.259-.735-.684-1.09-1.097-.53-.616-.99-1.148-1.453-1.148l-.173.027c-.35.113-.798.612-.798 1.943 0 .416-.328.654-.56.654h-1.252c-.427 0-2.649-.149-4.617-2.226-2.41-2.543-4.579-7.643-4.597-7.691-.137-.33.146-.507.454-.507h2.762c.368 0 .489.224.572.423.098.232.459 1.152 1.052 2.188.961 1.688 1.549 2.373 2.022 2.373.089 0 .171-.024.253-.066.616-.343.501-2.539.474-2.995 0-.086-.002-.983-.317-1.413-.226-.312-.611-.43-.844-.474.06-.089.195-.226.363-.308.423-.211 1.185-.242 1.941-.242h.421c.82.011 1.032.064 1.329.139.602.144.614.532.561 1.861-.016.377-.033.804-.033 1.307l-.005.35c-.018.676-.04 1.444.438 1.759.062.038.133.06.208.06.166 0 .665 0 2.018-2.321.592-1.024 1.052-2.233 1.085-2.322.027-.047.108-.193.202-.25.075-.044.175-.053.226-.053h3.247c.354 0 .596.053.642.19.08.217-.015.879-1.497 2.886l-.662.873c-1.343 1.761-1.343 1.85.084 3.186z" sketch:type="MSShapeGroup" fill="#3D648D"/></svg>
